X:393
T:Valchiusella
Z:Gian Marco Pietrasanta
Z:Jack Campin, http://www.campin.me.uk/
F:Jack Campin's Nine-Note Tunebook
% last edit 03-02-2013
M:3/4
L:1/8
S:http://www.thesession.org/tunes/display/12077
G:French-style mazurka from Piedmont
K:DMin
D>E|:F2 F>E F>G|F>E D2 F2|A2  AA  AA |   B2 A4     |
     D2 F2  A2 |G>F E4   |A>B A>G F>E|   F2 D2
D>E| F2 F>E F>G|F>E D2 F2|A2  AA  AA |   B2 A4     |
     D2 F2  A2 |G>F E4   |A>B A>G F>E|[1 D2 D2 E>F:|\
                                      [2 D2 D4    ||
   |:d2 d2  c2 |B>A G4   |G2  B2  d2 |   c2 A4     |
     D2 F2  A2 |G>F E4   |A>B A>G F>E|   F2 D4     |
     d2 d2  c2 |B>A G4   |G2  B2  d2 |   c2 A4     |
     D2 F2  A2 |G>F E4   |A>B A>G F>E|   D2 D4    :|

